Other-Icons/16x16-light/places/folder-activities.svg

<svg xmlns="http://www.w3.org/2000/svg" width="16" height="16"><g fill="#272d3a"><path d="M3.5 3h1c.277 0 .5.223.5.5v1c0 .277-.223.5-.5.5h-1a.499.499 0 0 1-.5-.5v-1c0-.277.223-.5.5-.5zM7.5 3h1c.277 0 .5.223.5.5v1c0 .277-.223.5-.5.5h-1a.499.499 0 0 1-.5-.5v-1c0-.277.223-.5.5-.5zM11.5 3h1c.277 0 .5.223.5.5v1c0 .277-.223.5-.5.5h-1a.499.499 0 0 1-.5-.5v-1c0-.277.223-.5.5-.5zM3.5 7h1c.277 0 .5.223.5.5v1c0 .277-.223.5-.5.5h-1a.499.499 0 0 1-.5-.5v-1c0-.277.223-.5.5-.5zM7.5 7h1c.277 0 .5.223.5.5v1c0 .277-.223.5-.5.5h-1a.499.499 0 0 1-.5-.5v-1c0-.277.223-.5.5-.5zM11.5 7h1c.277 0 .5.223.5.5v1c0 .277-.223.5-.5.5h-1a.499.499 0 0 1-.5-.5v-1c0-.277.223-.5.5-.5zM3.5 11h1c.277 0 .5.223.5.5v1c0 .277-.223.5-.5.5h-1a.499.499 0 0 1-.5-.5v-1c0-.277.223-.5.5-.5zM7.5 11h1c.277 0 .5.223.5.5v1c0 .277-.223.5-.5.5h-1a.499.499 0 0 1-.5-.5v-1c0-.277.223-.5.5-.5zM11.5 11h1c.277 0 .5.223.5.5v1c0 .277-.223.5-.5.5h-1a.499.499 0 0 1-.5-.5v-1c0-.277.223-.5.5-.5z"/></g></svg>

<?xml version="1.0" encoding="UTF-8" standalone="no"?>
<svg
   xmlns:dc="http://purl.org/dc/elements/1.1/"
   xmlns:cc="http://creativecommons.org/ns#"
   xmlns:rdf="http://www.w3.org/1999/02/22-rdf-syntax-ns#"
   xmlns:svg="http://www.w3.org/2000/svg"
   xmlns="http://www.w3.org/2000/svg"
   xmlns:sodipodi="http://sodipodi.sourceforge.net/DTD/sodipodi-0.dtd"
   xmlns:inkscape="http://www.inkscape.org/namespaces/inkscape"
   width="16"
   height="16"
   version="1.1"
   id="svg20"
   sodipodi:docname="folder-activities.svg"
   inkscape:version="0.92.4 5da689c313, 2019-01-14">
  <metadata
     id="metadata26">
    <rdf:RDF>
      <cc:Work
         rdf:about="">
        <dc:format>image/svg+xml</dc:format>
        <dc:type
           rdf:resource="http://purl.org/dc/dcmitype/StillImage" />
      </cc:Work>
    </rdf:RDF>
  </metadata>
  <defs
     id="defs24" />
  <sodipodi:namedview
     pagecolor="#ffffff"
     bordercolor="#666666"
     borderopacity="1"
     objecttolerance="10"
     gridtolerance="10"
     guidetolerance="10"
     inkscape:pageopacity="0"
     inkscape:pageshadow="2"
     inkscape:window-width="640"
     inkscape:window-height="506"
     id="namedview22"
     showgrid="false"
     inkscape:zoom="14.75"
     inkscape:cx="8"
     inkscape:cy="8"
     inkscape:window-x="0"
     inkscape:window-y="26"
     inkscape:window-maximized="0"
     inkscape:current-layer="svg20" />
  <g
     id="g842">
    <path
       id="path2"
       d="m 3.5,3 h 1 C 4.777,3 5,3.223 5,3.5 v 1 C 5,4.777 4.777,5 4.5,5 h -1 C 3.223,5 3,4.777 3,4.5 v -1 C 3,3.223 3.223,3 3.5,3 Z"
       style="fill:#272d3a;fill-opacity:1"
       inkscape:connector-curvature="0" />
    <path
       id="path4"
       d="m 7.5,3 h 1 C 8.777,3 9,3.223 9,3.5 v 1 C 9,4.777 8.777,5 8.5,5 h -1 C 7.223,5 7,4.777 7,4.5 v -1 C 7,3.223 7.223,3 7.5,3 Z"
       style="fill:#272d3a;fill-opacity:1"
       inkscape:connector-curvature="0" />
    <path
       id="path6"
       d="m 11.5,3 h 1 C 12.777,3 13,3.223 13,3.5 v 1 C 13,4.777 12.777,5 12.5,5 h -1 C 11.223,5 11,4.777 11,4.5 v -1 C 11,3.223 11.223,3 11.5,3 Z"
       style="fill:#272d3a;fill-opacity:1"
       inkscape:connector-curvature="0" />
    <path
       id="path8"
       d="m 3.5,7 h 1 C 4.777,7 5,7.223 5,7.5 v 1 C 5,8.777 4.777,9 4.5,9 h -1 C 3.223,9 3,8.777 3,8.5 v -1 C 3,7.223 3.223,7 3.5,7 Z"
       style="fill:#272d3a;fill-opacity:1"
       inkscape:connector-curvature="0" />
    <path
       id="path10"
       d="m 7.5,7 h 1 C 8.777,7 9,7.223 9,7.5 v 1 C 9,8.777 8.777,9 8.5,9 h -1 C 7.223,9 7,8.777 7,8.5 v -1 C 7,7.223 7.223,7 7.5,7 Z"
       style="fill:#272d3a;fill-opacity:1"
       inkscape:connector-curvature="0" />
    <path
       id="path12"
       d="m 11.5,7 h 1 C 12.777,7 13,7.223 13,7.5 v 1 C 13,8.777 12.777,9 12.5,9 h -1 C 11.223,9 11,8.777 11,8.5 v -1 C 11,7.223 11.223,7 11.5,7 Z"
       style="fill:#272d3a;fill-opacity:1"
       inkscape:connector-curvature="0" />
    <path
       id="path14"
       d="m 3.5,11 h 1 C 4.777,11 5,11.223 5,11.5 v 1 C 5,12.777 4.777,13 4.5,13 h -1 C 3.223,13 3,12.777 3,12.5 v -1 C 3,11.223 3.223,11 3.5,11 Z"
       style="fill:#272d3a;fill-opacity:1"
       inkscape:connector-curvature="0" />
    <path
       id="path16"
       d="m 7.5,11 h 1 C 8.777,11 9,11.223 9,11.5 v 1 C 9,12.777 8.777,13 8.5,13 h -1 C 7.223,13 7,12.777 7,12.5 v -1 C 7,11.223 7.223,11 7.5,11 Z"
       style="fill:#272d3a;fill-opacity:1"
       inkscape:connector-curvature="0" />
    <path
       id="path18"
       d="m 11.5,11 h 1 c 0.277,0 0.5,0.223 0.5,0.5 v 1 c 0,0.277 -0.223,0.5 -0.5,0.5 h -1 C 11.223,13 11,12.777 11,12.5 v -1 C 11,11.223 11.223,11 11.5,11 Z"
       style="fill:#272d3a;fill-opacity:1"
       inkscape:connector-curvature="0" />
  </g>
</svg>
